Yaru++/mimetypes/48/text-x-fortran.svg

<svg height="48" viewBox="0 0 12.699375 12.699375" width="48" xmlns="http://www.w3.org/2000/svg" xmlns:xlink="http://www.w3.org/1999/xlink"><linearGradient id="a" gradientUnits="userSpaceOnUse" x1="6.350071" x2="6.350071" y1=".396856" y2="12.03795"><stop offset="0" stop-color="#fff"/><stop offset=".125" stop-color="#fff" stop-opacity=".098039"/><stop offset=".92500001" stop-color="#fff" stop-opacity=".098039"/><stop offset="1" stop-color="#fff" stop-opacity=".498039"/></linearGradient><linearGradient id="b" gradientTransform="matrix(0 -.02997086 .02997 0 -3.039509 13.625372)" gradientUnits="userSpaceOnUse" x1="459.03448" x2="35.310345" y1="419.23337" y2="207.36522"><stop offset="0" stop-color="#f2f2f2"/><stop offset="1" stop-color="#f9f9f9"/></linearGradient><path d="m4.1621982.39685644c-.5881133-.0089583-1.0513178.0135407-1.4323995.0775109-.3810845.0639689-.692923.1839555-.9213477.4118408-.228422.22788546-.3489841.53958336-.4123566.92082866-.0633725.3812456-.0757439.8453924-.07286 1.4349839v3.2399529 3.2415032c-.00286.5886852.00955 1.0525972.07286 1.4334332.063373.381246.1839346.692944.4123566.920829.2284247.227885.5402632.347873.9213477.411841.3810844.06397.8442174.07751 1.4323995.07751h4.3757443c.5881821 0 1.0510739-.01352 1.4313679-.07751.3802926-.064.6911786-.18439.9187596-.412357.227583-.227967.347434-.539443.411325-.920313.06389-.380868.07751-.844073.07751-1.4334332v-3.2415032-3.1748437l-2.8389625-2.84361416z" opacity=".1"/><path d="m4.1623596.39685644c-2.3346161 0-2.5858177.2397933-2.574375 2.57913196v3.2414149 3.2414145c-.011456 2.3393392.2397589 2.5791322 2.574375 2.5791322h4.3757787c2.3346157 0 2.5743747-.239767 2.5743747-2.5791322v-3.2414145l-.000177-3.1748438-2.6457031-2.64570306z" fill="none" opacity=".2" stroke="#000" stroke-width=".529141"/><path d="m4.1623596.39685644c-2.3346161 0-2.5858177.2397933-2.574375 2.57913196v3.2414149 3.2414145c-.011456 2.3393392.2397589 2.5791322 2.574375 2.5791322h4.3757787c2.3346157 0 2.5743747-.239767 2.5743747-2.5791322v-3.2414145l-.000177-3.1748438-2.6457031-2.64570306z" fill="url(#b)"/><path d="m6.879211 9.9213878s-.3491111.0076-.5291406 0c-.5291407 0-.5291407-.793711-.5291407-1.322852-.00873-.464898 0-1.058281 0-1.058281.1277902.01906.156623 0 .2645704 0 .7937109 0 .7930944.723866.7937109 1.322852h.2645703.2645703v-1.4031684-1.5071054h-.2600038-.2598292l-.0002037.3278626c-.0005292.5947435-.1198716.6714112-.7589544.7112108l-.3084308.0192078v-1.8519922h.5291407c.8245386 0 1.3829487.1031338 1.5593695.2062157.5048742.4504055.557193 1.0221457.557193 1.6457765h.5291406v-2.3811328h-5.2914063v.5291406h.4157617c.5919787 0 .6425196.054058.6425196 2.3811328 0 1.058281.030227 2.342485-.5291406 2.381133-.1888768.0093-.5291407 0-.5291407 0v.5291402h3.1748438z" fill="#aea795" stroke-width=".06245"/><path d="m1.5878047 6.2174033v3.2415035c-.011456 2.3393372.2397774 2.5790432 2.5743935 2.5790432h4.3757443c2.3346155 0 2.5743935-.239679 2.5743935-2.5790432v-3.2415035z" fill="#fff" opacity=".2"/><path d="m6.3500704.39685644v11.64109356h2.1878721c2.3346155 0 2.5743935-.239679 2.5743935-2.5790432v-3.2415035-3.1748438l-2.6457031-2.64570306z" fill="#fff" opacity=".1"/><path d="m4.1621982.39685644c-2.3346161 0-2.5858362.2397052-2.5743935 2.57904386v3.241503 3.2415035c-.011456 2.3393372.2397774 2.5790432 2.5743935 2.5790432h4.3757443c2.3346155 0 2.5743935-.239679 2.5743935-2.5790432v-3.2415035-3.1748438h-.264571v3.1748438 3.2415035c0 .5803222-.01624 1.0240712-.07027 1.3461032-.05402.322035-.13987.509123-.264054.633524-.124184.124388-.310701.2105-.6319706.264571-.321273.05406-.7643968.07028-1.3435227.07028h-4.3757495c-.5791259 0-1.0227997-.01619-1.3450728-.07028-.3222705-.0541-.5102953-.14009-.635072-.264571-.124774-.124488-.2105874-.311351-.2640517-.633005-.0534671-.321654-.0684682-.765511-.0656267-1.3455892v-.000529-3.2420075-3.2420198-.0005291c-.00283-.5800778.01217-1.0239334.065627-1.3455882.053467-.3216548.1392777-.5085248.2640517-.63300506.124774-.1244803.3133201-.2104736.6355905-.2645703.3222705-.0540718.7654284-.070264 1.3445543-.070264h4.3044347v-.2645704z" fill="url(#a)" opacity=".4"/><path d="m11.112336 3.3071299v-.2645704l-2.6457031-2.64570306h-.2645703v1.11359066.042668.022917c0 1.5059289.201592 1.7381397 1.7109758 1.7307589z" opacity=".2"/><path d="m11.112336 3.0422209-2.6457031-2.64536496v.98127586.042668.022917c0 1.5059289.069402 1.6058846 1.5787861 1.5985039z" fill="#faf8f6"/></svg>

<?xml version="1.0" encoding="UTF-8" standalone="no"?>
<svg
   xmlns:dc="http://purl.org/dc/elements/1.1/"
   xmlns:cc="http://creativecommons.org/ns#"
   xmlns:rdf="http://www.w3.org/1999/02/22-rdf-syntax-ns#"
   xmlns:svg="http://www.w3.org/2000/svg"
   xmlns="http://www.w3.org/2000/svg"
   xmlns:xlink="http://www.w3.org/1999/xlink"
   xmlns:sodipodi="http://sodipodi.sourceforge.net/DTD/sodipodi-0.dtd"
   xmlns:inkscape="http://www.inkscape.org/namespaces/inkscape"
   height="48"
   viewBox="0 0 12.699375 12.699375"
   width="48"
   version="1.1"
   id="svg33"
   sodipodi:docname="text-x-fortran.svg"
   inkscape:version="0.92.5 (2060ec1f9f, 2020-04-08)">
  <metadata
     id="metadata39">
    <rdf:RDF>
      <cc:Work
         rdf:about="">
        <dc:format>image/svg+xml</dc:format>
        <dc:type
           rdf:resource="http://purl.org/dc/dcmitype/StillImage" />
      </cc:Work>
    </rdf:RDF>
  </metadata>
  <defs
     id="defs37">
    <linearGradient
       gradientTransform="matrix(0.26457031,0,0,0.26457031,-84.662116,-16.006503)"
       inkscape:collect="always"
       xlink:href="#linearGradient927"
       id="linearGradient1004"
       x1="344"
       y1="62"
       x2="344"
       y2="106"
       gradientUnits="userSpaceOnUse" />
    <linearGradient
       inkscape:collect="always"
       id="linearGradient927">
      <stop
         style="stop-color:#ffffff;stop-opacity:1;"
         offset="0"
         id="stop923" />
      <stop
         id="stop933"
         offset="0.125"
         style="stop-color:#ffffff;stop-opacity:0.09803922" />
      <stop
         id="stop931"
         offset="0.92500001"
         style="stop-color:#ffffff;stop-opacity:0.09803922" />
      <stop
         style="stop-color:#ffffff;stop-opacity:0.49803922"
         offset="1"
         id="stop925" />
    </linearGradient>
    <linearGradient
       inkscape:collect="always"
       xlink:href="#linearGradient4338"
       id="linearGradient1024"
       gradientUnits="userSpaceOnUse"
       gradientTransform="matrix(0,-0.02997086,0.02997,0,-3.0395088,13.625372)"
       x1="459.03448"
       y1="419.23337"
       x2="35.310345"
       y2="207.36522" />
    <linearGradient
       inkscape:collect="always"
       id="linearGradient4338">
      <stop
         style="stop-color:#f2f2f2;stop-opacity:1"
         offset="0"
         id="stop4340" />
      <stop
         style="stop-color:#f9f9f9;stop-opacity:1"
         offset="1"
         id="stop4342" />
    </linearGradient>
  </defs>
  <sodipodi:namedview
     pagecolor="#ffffff"
     bordercolor="#666666"
     borderopacity="1"
     objecttolerance="10"
     gridtolerance="10"
     guidetolerance="10"
     inkscape:pageopacity="0"
     inkscape:pageshadow="2"
     inkscape:window-width="834"
     inkscape:window-height="480"
     id="namedview35"
     showgrid="false"
     inkscape:zoom="4.9166667"
     inkscape:cx="24"
     inkscape:cy="24"
     inkscape:window-x="0"
     inkscape:window-y="28"
     inkscape:window-maximized="0"
     inkscape:current-layer="svg33" />
  <linearGradient
     id="a"
     gradientUnits="userSpaceOnUse"
     x1="344"
     x2="344"
     y1="62"
     y2="106">
    <stop
       offset="0"
       stop-color="#fff"
       id="stop2" />
    <stop
       offset=".125"
       stop-color="#fff"
       stop-opacity=".098039"
       id="stop4" />
    <stop
       offset=".92500001"
       stop-color="#fff"
       stop-opacity=".098039"
       id="stop6" />
    <stop
       offset="1"
       stop-color="#fff"
       stop-opacity=".498039"
       id="stop8" />
  </linearGradient>
  <clipPath
     id="b">
    <path
       d="m335.73108 62c-8.82418 0-9.77365.90635-9.7304 9.74838v12.25162 12.25162c-.0433 8.84203.90622 9.74838 9.7304 9.74838h16.53919c8.82418 0 9.7304-.90625 9.7304-9.74838v-12.25162-12.25162c0-8.84213-.90622-9.74838-9.7304-9.74838z"
       id="path11" />
  </clipPath>
  <linearGradient
     id="c"
     gradientTransform="matrix(0 -.02997086 .02997 0 -3.039509 13.625372)"
     gradientUnits="userSpaceOnUse"
     x1="459.03448"
     x2="35.310345"
     y1="419.23337"
     y2="207.36522">
    <stop
       offset="0"
       stop-color="#f2f2f2"
       id="stop14" />
    <stop
       offset="1"
       stop-color="#f9f9f9"
       id="stop16" />
  </linearGradient>
  <path
     style="color:#000000;font-style:normal;font-variant:normal;font-weight:normal;font-stretch:normal;font-size:medium;line-height:normal;font-family:sans-serif;font-variant-ligatures:normal;font-variant-position:normal;font-variant-caps:normal;font-variant-numeric:normal;font-variant-alternates:normal;font-feature-settings:normal;text-indent:0;text-align:start;text-decoration:none;text-decoration-line:none;text-decoration-style:solid;text-decoration-color:#000000;letter-spacing:normal;word-spacing:normal;text-transform:none;writing-mode:lr-tb;direction:ltr;text-orientation:mixed;dominant-baseline:auto;baseline-shift:baseline;text-anchor:start;white-space:normal;shape-padding:0;clip-rule:nonzero;display:inline;overflow:visible;visibility:visible;opacity:0.1;isolation:auto;mix-blend-mode:normal;color-interpolation:sRGB;color-interpolation-filters:linearRGB;solid-color:#000000;solid-opacity:1;vector-effect:none;fill:#000000;fill-opacity:1;fill-rule:nonzero;stroke:none;stroke-width:0.52914065;stroke-linecap:butt;stroke-linejoin:miter;stroke-miterlimit:4;stroke-dasharray:none;stroke-dashoffset:0;stroke-opacity:1;marker:none;color-rendering:auto;image-rendering:auto;shape-rendering:auto;text-rendering:auto;enable-background:accumulate"
     d="M 4.1621982,0.39685644 C 3.5740849,0.38789814 3.1108804,0.41039714 2.7297987,0.47436734 2.3487142,0.53833624 2.0368757,0.65832284 1.808451,0.88620814 1.580029,1.1140936 1.4594669,1.4257915 1.3960944,1.8070368 1.3327219,2.1882824 1.3203505,2.6524292 1.3232344,3.2420207 v 3.2399529 3.2415032 c -0.00286,0.5886852 0.00955,1.0525972 0.07286,1.4334332 0.063373,0.381246 0.1839346,0.692944 0.4123566,0.920829 0.2284247,0.227885 0.5402632,0.347873 0.9213477,0.411841 0.3810844,0.06397 0.8442174,0.07751 1.4323995,0.07751 h 4.3757443 c 0.5881821,0 1.0510739,-0.01352 1.4313679,-0.07751 0.3802926,-0.064 0.6911786,-0.18439 0.9187596,-0.412357 0.227583,-0.227967 0.347434,-0.539443 0.411325,-0.920313 0.06389,-0.380868 0.07751,-0.844073 0.07751,-1.4334332 V 6.4819736 3.3071299 L 8.5379425,0.46351574 Z"
     id="path1020"
     inkscape:connector-curvature="0"
     sodipodi:nodetypes="sccsccccccsscccscccs" />
  <path
     style="color:#000000;display:inline;overflow:visible;visibility:visible;opacity:0.2;fill:none;fill-opacity:1;fill-rule:nonzero;stroke:#000000;stroke-width:0.52914065;stroke-miterlimit:4;stroke-dasharray:none;stroke-opacity:1;marker:none;enable-background:accumulate"
     d="m 4.1623596,0.39685644 c -2.3346161,0 -2.5858177,0.2397933 -2.574375,2.57913196 V 6.2174033 9.4588178 C 1.5765286,11.798157 1.8277435,12.03795 4.1623596,12.03795 h 4.3757787 c 2.3346157,0 2.5743747,-0.239767 2.5743747,-2.5791322 V 6.2174033 L 11.112336,3.0425595 8.4666329,0.39685644 Z"
     id="path958"
     inkscape:connector-curvature="0"
     sodipodi:nodetypes="scccssscccs" />
  <path
     style="color:#000000;display:inline;overflow:visible;visibility:visible;fill:url(#linearGradient1024);fill-opacity:1;fill-rule:nonzero;stroke:none;stroke-width:0.26457033;marker:none;enable-background:accumulate"
     d="m 4.1623596,0.39685644 c -2.3346161,0 -2.5858177,0.2397933 -2.574375,2.57913196 V 6.2174033 9.4588178 C 1.5765286,11.798157 1.8277435,12.03795 4.1623596,12.03795 h 4.3757787 c 2.3346157,0 2.5743747,-0.239767 2.5743747,-2.5791322 V 6.2174033 L 11.112336,3.0425595 8.4666329,0.39685644 Z"
     id="path964"
     inkscape:connector-curvature="0"
     sodipodi:nodetypes="scccssscccs" />
  <path
     sodipodi:nodetypes="ccccsccccccccsccsccccccscccccc"
     inkscape:connector-curvature="0"
     id="path1036"
     d="m 6.879211,9.9213878 c 0,0 -0.3491111,0.0076 -0.5291406,0 -0.5291407,0 -0.5291407,-0.793711 -0.5291407,-1.322852 -0.00873,-0.464898 0,-1.058281 0,-1.058281 0.1277902,0.01906 0.156623,0 0.2645704,0 0.7937109,0 0.7930944,0.723866 0.7937109,1.322852 H 7.1437813 7.4083516 V 7.4599384 5.952833 H 7.1483478 6.8885186 L 6.8883149,6.2806956 C 6.8877857,6.8754391 6.7684433,6.9521068 6.1293605,6.9919064 L 5.8209297,7.0111142 V 5.159122 h 0.5291407 c 0.8245386,0 1.3829487,0.1031338 1.5593695,0.2062157 0.5048742,0.4504055 0.557193,1.0221457 0.557193,1.6457765 H 8.9957735 V 4.6299814 H 3.7043672 V 5.159122 h 0.4157617 c 0.5919787,0 0.6425196,0.054058 0.6425196,2.3811328 0,1.058281 0.030227,2.342485 -0.5291406,2.381133 -0.1888768,0.0093 -0.5291407,0 -0.5291407,0 V 10.450528 H 6.879211 Z"
     style="display:inline;fill:#aea795;fill-opacity:1;stroke-width:0.0624501;enable-background:new" />
  <path
     style="color:#000000;display:inline;overflow:visible;visibility:visible;opacity:0.2;fill:#ffffff;fill-opacity:1;fill-rule:nonzero;stroke:none;stroke-width:0.26457033;marker:none;enable-background:accumulate"
     d="M 1.5878047,6.2174033 V 9.4589068 C 1.5763487,11.798244 1.8275821,12.03795 4.1621982,12.03795 h 4.3757443 c 2.3346155,0 2.5743935,-0.239679 2.5743935,-2.5790432 V 6.2174033 Z"
     id="path1006"
     inkscape:connector-curvature="0" />
  <path
     style="color:#000000;display:inline;overflow:visible;visibility:visible;opacity:0.1;fill:#ffffff;fill-opacity:1;fill-rule:nonzero;stroke:none;stroke-width:0.26457033;marker:none;enable-background:accumulate"
     d="M 6.3500704,0.39685644 V 12.03795 h 2.1878721 c 2.3346155,0 2.5743935,-0.239679 2.5743935,-2.5790432 V 6.2174033 3.0425595 L 8.4666329,0.39685644 Z"
     id="path1013"
     inkscape:connector-curvature="0"
     sodipodi:nodetypes="ccsscccc" />
  <path
     style="color:#000000;font-style:normal;font-variant:normal;font-weight:normal;font-stretch:normal;font-size:medium;line-height:normal;font-family:sans-serif;font-variant-ligatures:normal;font-variant-position:normal;font-variant-caps:normal;font-variant-numeric:normal;font-variant-alternates:normal;font-feature-settings:normal;text-indent:0;text-align:start;text-decoration:none;text-decoration-line:none;text-decoration-style:solid;text-decoration-color:#000000;letter-spacing:normal;word-spacing:normal;text-transform:none;writing-mode:lr-tb;direction:ltr;text-orientation:mixed;dominant-baseline:auto;baseline-shift:baseline;text-anchor:start;white-space:normal;shape-padding:0;clip-rule:nonzero;display:inline;overflow:visible;visibility:visible;opacity:0.4;isolation:auto;mix-blend-mode:normal;color-interpolation:sRGB;color-interpolation-filters:linearRGB;solid-color:#000000;solid-opacity:1;vector-effect:none;fill:url(#linearGradient1004);fill-opacity:1;fill-rule:nonzero;stroke:none;stroke-width:0.52914065;stroke-linecap:butt;stroke-linejoin:miter;stroke-miterlimit:4;stroke-dasharray:none;stroke-dashoffset:0;stroke-opacity:1;marker:none;color-rendering:auto;image-rendering:auto;shape-rendering:auto;text-rendering:auto;enable-background:accumulate"
     clip-path="none"
     d="m 4.1621982,0.39685644 c -2.3346161,0 -2.5858362,0.2397052 -2.5743935,2.57904386 v 3.241503 3.2415035 C 1.5763487,11.798244 1.8275821,12.03795 4.1621982,12.03795 h 4.3757443 c 2.3346155,0 2.5743935,-0.239679 2.5743935,-2.5790432 V 6.2174033 3.0425595 h -0.264571 v 3.1748438 3.2415035 c 0,0.5803222 -0.01624,1.0240712 -0.07027,1.3461032 -0.05402,0.322035 -0.13987,0.509123 -0.264054,0.633524 -0.124184,0.124388 -0.310701,0.2105 -0.6319706,0.264571 -0.321273,0.05406 -0.7643968,0.07028 -1.3435227,0.07028 H 4.1621982 c -0.5791259,0 -1.0227997,-0.01619 -1.3450728,-0.07028 -0.3222705,-0.0541 -0.5102953,-0.14009 -0.635072,-0.264571 C 2.0572794,11.314046 1.971466,11.127183 1.9180017,10.805529 1.8645346,10.483875 1.8495335,10.040018 1.852375,9.4599398 V 9.4594108 6.2174033 2.9753835 2.9748544 c -0.00283,-0.5800778 0.01217,-1.0239334 0.065627,-1.3455882 0.053467,-0.3216548 0.1392777,-0.5085248 0.2640517,-0.63300506 0.124774,-0.1244803 0.3133201,-0.2104736 0.6355905,-0.2645703 0.3222705,-0.0540718 0.7654284,-0.070264 1.3445543,-0.070264 h 4.3044347 v -0.2645704 z"
     id="path990"
     inkscape:connector-curvature="0" />
  <path
     inkscape:connector-curvature="0"
     style="color:#000000;display:inline;overflow:visible;visibility:visible;opacity:0.2;fill:#000000;fill-opacity:1;fill-rule:nonzero;stroke:none;stroke-width:0.06614863;marker:none;enable-background:accumulate"
     d="M 11.112336,3.3071299 V 3.0425595 L 8.4666329,0.39685644 H 8.2020626 v 1.11359066 0.042668 0.022917 c 0,1.5059289 0.201592,1.7381397 1.7109758,1.7307589 z"
     id="rect4158-0-3-62-2"
     sodipodi:nodetypes="ccccccscc" />
  <path
     inkscape:connector-curvature="0"
     style="color:#000000;display:inline;overflow:visible;visibility:visible;fill:#faf8f6;fill-opacity:1;fill-rule:nonzero;stroke:none;stroke-width:0.06614863;marker:none;enable-background:accumulate"
     d="M 11.112336,3.0422209 8.4666329,0.39685594 v 0.98127586 0.042668 0.022917 c 0,1.5059289 0.069402,1.6058846 1.5787861,1.5985039 z"
     id="rect4158-0-3-62"
     sodipodi:nodetypes="ccccscc" />
</svg>
